build/svg/cmd/lc_animationeffects.svg

<?xml version="1.0" encoding="UTF-8" standalone="no"?>
<svg
   xmlns:dc="http://purl.org/dc/elements/1.1/"
   xmlns:cc="http://creativecommons.org/ns#"
   xmlns:rdf="http://www.w3.org/1999/02/22-rdf-syntax-ns#"
   xmlns:svg="http://www.w3.org/2000/svg"
   xmlns="http://www.w3.org/2000/svg"
   xmlns:sodipodi="http://sodipodi.sourceforge.net/DTD/sodipodi-0.dtd"
   xmlns:inkscape="http://www.inkscape.org/namespaces/inkscape"
   viewBox="0 0 24 24"
   version="1.1"
   id="svg4"
   sodipodi:docname="lc_animationeffects.svg"
   inkscape:export-filename="/home/jupiter007/Libreoffice yaru theme fullcolor/build/cmd/lc_animationeffects.png"
   inkscape:export-xdpi="96"
   inkscape:export-ydpi="96"
   inkscape:version="0.92.5 (2060ec1f9f, 2020-04-08)">
  <metadata
     id="metadata10">
    <rdf:RDF>
      <cc:Work
         rdf:about="">
        <dc:format>image/svg+xml</dc:format>
        <dc:type
           rdf:resource="http://purl.org/dc/dcmitype/StillImage" />
      </cc:Work>
    </rdf:RDF>
  </metadata>
  <defs
     id="defs8">
    <linearGradient
       id="b"
       gradientTransform="matrix(2.4289198,0,0,0.68442421,-561.97227,-21.315091)"
       gradientUnits="userSpaceOnUse"
       x1="236.1953"
       x2="236.1953"
       y1="35.803886"
       y2="53.803886">
      <stop
         offset="0"
         stop-color="#f4f4f4"
         stop-opacity=".746324"
         id="stop11" />
      <stop
         offset=".5"
         stop-color="#f7f7f7"
         id="stop13" />
      <stop
         offset="1"
         stop-color="#dcdcdc"
         id="stop15" />
    </linearGradient>
    <linearGradient
       id="a"
       gradientTransform="matrix(0.68442812,0,0,0.68442421,-53.298375,-191.05218)"
       gradientUnits="userSpaceOnUse"
       x1="105.47171"
       x2="105.47171"
       y1="283.47653"
       y2="303.33859">
      <stop
         offset="0"
         stop-color="#fff"
         id="stop2" />
      <stop
         offset=".06316455"
         stop-color="#fff"
         stop-opacity=".235294"
         id="stop4" />
      <stop
         offset=".95056331"
         stop-color="#fff"
         stop-opacity=".156863"
         id="stop6" />
      <stop
         offset="1"
         stop-color="#fff"
         stop-opacity=".392157"
         id="stop8" />
    </linearGradient>
  </defs>
  <sodipodi:namedview
     pagecolor="#ffffff"
     bordercolor="#666666"
     borderopacity="1"
     objecttolerance="10"
     gridtolerance="10"
     guidetolerance="10"
     inkscape:pageopacity="0"
     inkscape:pageshadow="2"
     inkscape:window-width="1920"
     inkscape:window-height="1011"
     id="namedview6"
     showgrid="true"
     inkscape:zoom="19.666667"
     inkscape:cx="1.1591917"
     inkscape:cy="18.947726"
     inkscape:window-x="0"
     inkscape:window-y="32"
     inkscape:window-maximized="1"
     inkscape:current-layer="svg4">
    <inkscape:grid
       type="xygrid"
       id="grid907" />
  </sodipodi:namedview>
  <path
     id="path18"
     style="opacity:0.2;fill:none;stroke:#000000;stroke-width:1;stroke-linecap:round;stroke-linejoin:round"
     d="M 2.8652648,2.5157542 C 2.1069242,2.5165561 1.4978977,3.1262649 1.4964164,3.8846112 l -0.012256,6.2743618 c -0.00143,0.73121 0.5695642,1.319268 1.2899792,1.360838 l 18.3403917,-0.01811 c 0.75834,-7.5e-4 1.367366,-0.610511 1.368848,-1.368857 l 0.01226,-6.2743614 C 22.497039,3.1285154 21.92834,2.5410272 21.20967,2.4976466 Z"
     inkscape:connector-curvature="0" />
  <path
     id="path20"
     d="M 3.3675817,3.0108677 C 2.6092518,3.0056941 1.9895401,3.6214561 1.9987333,4.3797248 l 0.062049,5.1179325 c 0.00919,0.7582687 0.6105185,1.3647177 1.3688484,1.3688317 l 17.3019802,0.09364 c 0.758336,0.0052 1.37804,-0.610589 1.368848,-1.3688575 L 22.038419,4.473341 C 22.029219,3.7150723 21.427901,3.108597 20.66957,3.1045098 Z"
     inkscape:connector-curvature="0"
     style="fill:url(#b);stroke-width:2.5868001" />
  <path
     id="path22"
     d="M 20.774512,3.5441107 3.2123259,3.5416533 C 2.8331528,3.5418085 2.5291543,3.8468957 2.5279017,4.2260689 l -0.018234,5.519378 c -0.00121,0.3673251 0.2883754,0.6596081 0.651005,0.6777411 l 17.5902563,0.0078 c 0.379173,1.56e-4 0.683171,-0.305267 0.684424,-0.6844406 L 21.45359,4.2271295 C 21.454822,3.8498964 21.151014,3.5471373 20.774516,3.544059 Z"
     inkscape:connector-curvature="0"
     style="fill:none;stroke:url(#a);stroke-width:1;stroke-linecap:round;stroke-linejoin:round" />
  <path
     sodipodi:nodetypes="ccccc"
     style="fill:#ffffff;stroke:#ffffff;stroke-width:2;stroke-linejoin:round;stroke-miterlimit:4;stroke-dasharray:none"
     inkscape:connector-curvature="0"
     id="path970"
     d="M 11,8 11.0059,21 14.900432,16.300781 21,16 Z" />
  <path
     d="M 11,8 11.0059,21 14.900432,16.300781 21,16 Z"
     id="path2"
     inkscape:connector-curvature="0"
     style="fill:#232629"
     sodipodi:nodetypes="ccccc" />
</svg>

<svg xmlns="http://www.w3.org/2000/svg" viewBox="0 0 24 24"><defs><linearGradient id="a" gradientTransform="matrix(2.42892 0 0 .68442 -561.972 -21.315)" gradientUnits="userSpaceOnUse" x1="236.195" x2="236.195" y1="35.804" y2="53.804"><stop offset="0" stop-color="#f4f4f4" stop-opacity=".746"/><stop offset=".5" stop-color="#f7f7f7"/><stop offset="1" stop-color="#dcdcdc"/></linearGradient><linearGradient id="b" gradientTransform="matrix(.68443 0 0 .68442 -53.298 -191.052)" gradientUnits="userSpaceOnUse" x1="105.472" x2="105.472" y1="283.477" y2="303.339"><stop offset="0" stop-color="#fff"/><stop offset=".063" stop-color="#fff" stop-opacity=".235"/><stop offset=".951" stop-color="#fff" stop-opacity=".157"/><stop offset="1" stop-color="#fff" stop-opacity=".392"/></linearGradient></defs><path d="M2.865 2.516c-.758 0-1.367.61-1.369 1.369l-.012 6.274c-.001.731.57 1.32 1.29 1.36l18.34-.017c.759-.001 1.368-.61 1.37-1.37l.012-6.274a1.361 1.361 0 00-1.286-1.36z" opacity=".2" fill="none" stroke="#000" stroke-linecap="round" stroke-linejoin="round"/><path d="M3.368 3.01a1.357 1.357 0 00-1.37 1.37l.063 5.118c.009.758.61 1.364 1.369 1.368l17.302.094A1.357 1.357 0 0022.1 9.591l-.062-5.118a1.374 1.374 0 00-1.368-1.368z" fill="url(#a)"/><path d="M20.775 3.544L3.212 3.542a.684.684 0 00-.684.684l-.018 5.52a.678.678 0 00.65.677l17.59.008c.38 0 .684-.305.685-.684l.019-5.52a.681.681 0 00-.68-.683z" fill="none" stroke="url(#b)" stroke-linecap="round" stroke-linejoin="round"/><path d="M11 8l.006 13 3.894-4.7L21 16z" fill="#fff" stroke="#fff" stroke-width="2" stroke-linejoin="round"/><path d="M11 8l.006 13 3.894-4.7L21 16z" fill="#232629"/></svg>
